X: 123
T: Miss Wardlaw's Reel
F: http://www.vwml.org/record/Urbani1800/3048/p49
B: Urbani & Liston "A Selection of Scotch, English Irish, and Foreign Airs", Edinburgh 1800, p.49 #1
F: http://www.vwml.org/browse/browse-collections-dance-tune-books/browse-urbani1800
Z: 2014 John Chambers <jc:trillian.mit.edu>
M: C|
L: 1/8
K: G
D |\
G2BG BgdB | G2BG FAFD | G2BG BgdB | cAFA G2G :||: f | g2d=f ecAc | BdFA GFED |
g2d=f ecAc | BdDF G2Gf | g2d=f ecAc | BdFA GFED | ced=f ecAc | BdFA G2G :|
T: the Milliners House
F: http://www.vwml.org/record/Urbani1800/3048/p49
B: Urbani & Liston "A Selection of Scotch, English Irish, and Foreign Airs", Edinburgh 1800, p.49 #2 F: http://www.vwml.org/browse/browse-collections-dance-tune-books/browse-urbani1800
Z: 2014 John Chambers <jc:trillian.mit.edu>
N: The rhythms aren't quite right at the strains' boundaries; not fixed.
M: C
L: 1/8
K: G
d>c |\
cBdB BAdA | AGFA GFED | cAcc BGBB | AdAF D2d>c |\
cBdB BAdA | AGFA GFED | EDED c2B2 | BAGF G2 :|
|:\
B3c AFGA | B3c AFGA | BGdG dGeG | edcB B2A2 |\
B3c AFGA | B3c AFGA | gfed ecBA | BdFA G4 :|
T: Earl of Balcarras's March
F: http://www.vwml.org/record/Urbani1800/3048/p49
B: Urbani & Liston "A Selection of Scotch, English Irish, and Foreign Airs", Edinburgh 1800, p.49 #3 
F: http://www.vwml.org/browse/browse-collections-dance-tune-books/browse-urbani1800
Z: 2014 John Chambers <jc:trillian.mit.edu>
N: Fixed missing "pickup" to 2nd strain with initial rest.
N: Bars 9,12,14 are missing an 8th note somewhere; fixed with added dots.
M: C
L: 1/8
K: G
(B/d/) |\
g2d>d d2(cd/c/) | B2B>B B3d | dgBd d>cc>B | A2A>A A2z(B/d/) |\ g2d>d d2(cd/c/) | B2B>B B2zd | d>g B>d B2A2 | G2G>G G3 :|
|: z |\
A2A>A A3B | GBd(g b3)(g/b/) | d'bgd d>BB>G | A2A>A A3A |\ B.D.D.D c.D.D.D | d.D.D.D He3d | Bedc B2A2 | G2G>G G3 :|

